X:2145
T:Grdbygubbarnas Polska
A:Dalsland
M:3/4
O:Sweden
R:Polska
Z:Carol Turner
%%TUNEURL: http://www.leeds.ac.uk/music/Info/RRTuneBk/gettune/00000c5d.html
%%ID:00000c5d
K:A min
E^G A2 EG| AB c2 BA| .B2 B2-BB| \
cd e2 cB| Ac B2 ^GB| .A2 A4::\
e2 ce ce | ed Bd Bd| dB cd ed | cB (3A^GA B2 |\
e2 ce ce | ed Bd Bd | dB cd ed | Bc A4 :|
